X: 4267
T: Bob Of Fettercairn, The
R: reel
M: 4/4
K: Gmajor
dBGB dBGB|dBde f2 df|ecAc acAc|ecef gage|
dBGB dBGB|dBde f2 da|e2 fd edBg|AABd e2 g2||
dgBg dgBg|dgBg f2 df|eaca eaca|ecef gage|
dgBg dgBg|dgBg f2 da|e2 fd edBg|AABd e2 g2||
BGdG BGGB|dGBG f2 da|AAeA cAAc|eAcA gage|
BGdG BGGB|dGBG f2 da|e2 fd edBg|AABd e2 g2||
dgBg dgBg|dGBG f2 da|eaca eaca|eAcA gage|
dgBg dgBg|dGBG f2 da|e2 fd edBg|AABd e4||

